X:1
T:Title
%%score { ( 1 4 ) | ( 2 3 ) }
L:1/8
Q:1/4=100
M:2/4
K:Eb
V:1 treble nm="Grand Piano"
V:4 treble 
V:2 bass 
V:3 bass 
V:1
 [EGB]2 [B,EG]E | E2 D2 | z B, FG | [EG]2 [DF]2 | [EA]2 [EG]F | B2 cB | A2 G2 | [B,DF]4 | %8
w: John~Zundel * *||||||||
 [B,EB]2 [B,EG]E | E2 D2 | EE GB | B2 c2 | z2 e2 | e2 BG | z2 .G2 | E4 |] %16
w: ||||||||
V:2
 E,2 z G, | [B,,G,]2 [B,,F,B,]2 | z2 .[F,D]2 | [B,,B,]2 [B,,B,]2 | z2 B,2 | [G,B,E]2 E-[G,B,E] | %6
 [F,B,D]2 [E,B,E]2 | B,,4 | G,2 z G, | [B,,G,]2 [B,,F,B,]2 | z2 .B,2 | [A,DG]2 [A,CA]2 | %12
 [A,CA]2 A-[A,A] | [G,B,E]2 [E,G,E]2 | [B,,G,]2 [B,,A,]2 | [E,G,]4 |] %16
V:3
 z2 E,2 | x4 | [E,G,]G, B,-[E,B,E] | x4 | [C,A,]2 B,,[A,D] | z2 .A,2 | x4 | x4 | z2 E,2 | x4 | %10
 .[E,G,B,]2 [E,E]-[E,_DE] | x4 | z2 .[CE]2 | x4 | x4 | x4 |] %16
V:4
 x4 | x4 | E2 z2 | x4 | x4 | x4 | x4 | x4 | x4 | x4 | x4 | x4 | e2 z C | x4 | E2 D-[DF] | x4 |] %16

